X: 14038
T: Fraser Arms, The
R: reel
M: 4/4
K: Gminor
|:{B,}D2DB FDEC|{B,}D2DB FDdB|cABG FDEC|{B,}D2Dd cAG2:|
fddb fdec|fddf gabg|fddb fdec|DFBd cAG2|
fddb fdec|fddf gabg|fdcA BGFE|DCB,d cA G2||

